X: 1
T: Pete's March
C: Bob McQuillan
Z: John Chambers <jc@trillian.mit.edu>
M: 2/4
L: 1/8
K: D
A,B, |\
"D"D2  D>F | ED D>E | FA Ad | BA3 | f>e df | "G"ed Bd |\
[1 "D"A>B AF | "A7"FE :|[2 "A7"AF EF/E/ | "D"D2 |]
de |:\
"D"f2 f>g | "D7"fe df | "G"ed Bd | "D"BA FE | DF Ad |\
[1 "Bm"fa gf | "Em"ed fd | "A7"f2 e2 :|2 "G"dB A[gG] | "A7"[fF][eE] [dD][cC] | "D"[d2D2] |]
